svg/emoji_u26f5.svg

<?xml version="1.0" encoding="UTF-8"?>
<svg enable-background="new 0 0 128 128" version="1.1" viewBox="0 0 128 128" xmlns="http://www.w3.org/2000/svg"><linearGradient id="c" x1="64" x2="64" y1="108.33" y2="126.67" gradientUnits="userSpaceOnUse"><stop stop-color="#29B6F6" offset="0"/><stop stop-color="#0288D1" offset=".9826"/></linearGradient><rect x="4" y="108" width="120" height="16" fill="url(#c)"/><g opacity=".2"><path d="m121 111v10h-114v-10h114m3-3h-120v16h120v-16z" fill="#424242"/></g><path d="m32.98 98.02 9.2-6.02 33.66 1.84c0.72 0.04 1.31 0.59 1.4 1.3l0.66 7.45-44.92-4.57z" fill="#6D4C41"/><polygon points="64 11.64 81.45 16 64 20.36" fill="#E65100"/><path d="m64.07 103.64h-0.14c-0.44 0-0.79-0.36-0.79-0.79v-90.42c0-0.44 0.36-0.79 0.79-0.79h0.14c0.44 0 0.79 0.36 0.79 0.79v90.42c0 0.43-0.35 0.79-0.79 0.79z" fill="#5D4037"/><path d="m63.09 54h-14.42l-6.48 9h20.88l0.02-9z" fill="#81D4FA"/><polygon points="63.06 63 42.19 63 33.5 76 63.03 76" fill="#039BE5"/><polygon points="33.5 76 23.67 90 63 90 63.03 76" fill="#B3E5FC"/><path d="m63.14 33.17-14.47 20.83h14.42l0.05-20.83z" fill="#B3E5FC"/><g opacity=".2"><path d="m60.11 42.78-0.03 11.21-0.02 9-0.03 13-0.02 11.01h-30.57l6.51-9.28 0.04-0.06 8.66-12.96 6.45-8.96 0.02-0.02 0.01-0.02 8.98-12.92m3.03-9.78zm0 0.17-14.47 20.83-6.48 9-8.69 13-9.83 14h39.33l0.03-14 0.03-13 0.02-9 0.06-20.83z" fill="#424242"/></g><linearGradient id="b" x1="16" x2="112" y1="104.64" y2="104.64" gradientUnits="userSpaceOnUse"><stop stop-color="#FFA726" offset=".0095774"/><stop stop-color="#FD9A14" offset=".3163"/><stop stop-color="#FC9005" offset=".6933"/><stop stop-color="#FB8C00" offset="1"/></linearGradient><path d="m16.08 94.41 7.61 19.43c0.13 0.34 0.41 0.59 0.76 0.66 2.2 0.45 4.24 1.87 41.64 1.87 34.19 0 42.09-2.84 45.19-3.84 0.43-0.14 0.73-0.56 0.73-1.04v-7.3c0-0.61-0.48-1.11-1.07-1.09-4.96 0.14-26.61-0.84-53.19-2.91-25.85-2.01-36.66-6.12-40.41-7.23-0.85-0.26-1.59 0.61-1.26 1.45z" fill="url(#b)"/><linearGradient id="a" x1="84.205" x2="84.205" y1="26.75" y2="96.218" gradientUnits="userSpaceOnUse"><stop stop-color="#81D4FA" offset=".009644"/><stop stop-color="#29B6F6" offset="1"/></linearGradient><path d="m64 25.21s4 15.23 4.31 35.86c0.33 21.45-4.31 34.93-4.31 34.93l39.89 1s8.11-56.32-39.89-71.79z" fill="url(#a)"/><circle cx="30.52" cy="106.02" r="3.61" fill="#5D4037"/><circle cx="43.2" cy="107.8" r="3.2" fill="#5D4037"/><circle cx="56.3" cy="108.89" r="3.2" fill="#5D4037"/><g opacity=".2"><path d="m20.32 97.02c5.84 1.74 17.03 4.59 37.18 6.15 22.74 1.77 43.59 2.85 51.49 2.93v3.99c-3.84 1.15-13.38 3.27-42.91 3.27-31.91 0-37.76-1.03-39.97-1.55l-5.79-14.79m-3.28-4.11c-0.71 0-1.25 0.76-0.96 1.5l7.61 19.43c0.13 0.34 0.41 0.59 0.76 0.66 2.2 0.45 4.24 1.87 41.64 1.87 34.19 0 42.09-2.84 45.19-3.84 0.43-0.14 0.73-0.56 0.73-1.04v-7.3c0-0.6-0.47-1.09-1.04-1.09h-0.03c-0.31 0.01-0.69 0.01-1.13 0.01-6.57 0-27.15-0.98-52.06-2.92-25.85-2.01-36.66-6.12-40.41-7.23-0.11-0.04-0.21-0.05-0.3-0.05z" fill="#424242"/></g><g opacity=".2"><path d="m68.11 29.92c15.93 6.7 26.31 19.3 30.88 37.53 2.84 11.31 2.54 21.76 2.19 26.48l-33.24-0.83c1.4-5.57 3.6-16.84 3.37-32.08-0.2-13.6-1.96-24.81-3.2-31.1m-4.11-4.71s4 15.23 4.31 35.86c0.33 21.45-4.31 34.93-4.31 34.93l39.89 1s8.11-56.32-39.89-71.79z" fill="#424242"/></g></svg>

<?xml version="1.0" encoding="utf-8"?>
<!-- Generator: Adobe Illustrator 19.2.1, SVG Export Plug-In . SVG Version: 6.00 Build 0)  -->
<svg version="1.1" id="Layer_1" xmlns="http://www.w3.org/2000/svg" xmlns:xlink="http://www.w3.org/1999/xlink" x="0px" y="0px"
	 viewBox="0 0 128 128" style="enable-background:new 0 0 128 128;" xml:space="preserve">
<linearGradient id="SVGID_1_" gradientUnits="userSpaceOnUse" x1="64" y1="108.3333" x2="64" y2="126.6667">
	<stop  offset="0" style="stop-color:#29B6F6"/>
	<stop  offset="0.9826" style="stop-color:#0288D1"/>
</linearGradient>
<rect x="4" y="108" style="fill:url(#SVGID_1_);" width="120" height="16"/>
<g style="opacity:0.2;">
	<path style="fill:#424242;" d="M121,111v10H7v-10H121 M124,108H4v16h120V108L124,108z"/>
</g>
<path style="fill:#6D4C41;" d="M32.98,98.02l9.2-6.02l33.66,1.84c0.72,0.04,1.31,0.59,1.4,1.3l0.66,7.45L32.98,98.02z"/>
<polygon style="fill:#E65100;" points="64,11.64 81.45,16 64,20.36 "/>
<path style="fill:#5D4037;" d="M64.07,103.64h-0.14c-0.44,0-0.79-0.36-0.79-0.79V12.43c0-0.44,0.36-0.79,0.79-0.79h0.14
	c0.44,0,0.79,0.36,0.79,0.79v90.42C64.86,103.28,64.51,103.64,64.07,103.64z"/>
<path style="fill:#81D4FA;" d="M63.09,54c-4.91,0-9.6,0-14.42,0l-6.48,9h20.88L63.09,54z"/>
<polygon style="fill:#039BE5;" points="63.06,63 42.19,63 33.5,76 63.03,76 "/>
<polygon style="fill:#B3E5FC;" points="33.5,76 23.67,90 63,90 63.03,76 "/>
<path style="fill:#B3E5FC;" d="M63.14,33.17L48.67,54c4.82,0,9.51,0,14.42,0L63.14,33.17z"/>
<g style="opacity:0.2;">
	<path style="fill:#424242;" d="M60.11,42.78l-0.03,11.21l-0.02,9l-0.03,13L60.01,87H29.44l6.51-9.28l0.02-0.03l0.02-0.03
		l8.66-12.96l6.45-8.96l0.02-0.02l0.01-0.02L60.11,42.78 M63.14,33L63.14,33L63.14,33z M63.14,33.17L48.67,54l-6.48,9L33.5,76
		l-9.83,14H63l0.03-14l0.03-13l0.02-9L63.14,33.17L63.14,33.17z"/>
</g>
<linearGradient id="SVGID_2_" gradientUnits="userSpaceOnUse" x1="16" y1="104.6364" x2="112" y2="104.6364">
	<stop  offset="9.577372e-03" style="stop-color:#FFA726"/>
	<stop  offset="0.3163" style="stop-color:#FD9A14"/>
	<stop  offset="0.6933" style="stop-color:#FC9005"/>
	<stop  offset="1" style="stop-color:#FB8C00"/>
</linearGradient>
<path style="fill:url(#SVGID_2_);" d="M16.08,94.41l7.61,19.43c0.13,0.34,0.41,0.59,0.76,0.66c2.2,0.45,4.24,1.87,41.64,1.87
	c34.19,0,42.09-2.84,45.19-3.84c0.43-0.14,0.73-0.56,0.73-1.04v-7.3c0-0.61-0.48-1.11-1.07-1.09c-4.96,0.14-26.61-0.84-53.19-2.91
	c-25.85-2.01-36.66-6.12-40.41-7.23C16.49,92.7,15.75,93.57,16.08,94.41z"/>
<linearGradient id="SVGID_3_" gradientUnits="userSpaceOnUse" x1="84.2051" y1="26.75" x2="84.2051" y2="96.2181">
	<stop  offset="9.644002e-03" style="stop-color:#81D4FA"/>
	<stop  offset="1" style="stop-color:#29B6F6"/>
</linearGradient>
<path style="fill:url(#SVGID_3_);" d="M64,25.21c0,0,4,15.23,4.31,35.86C68.64,82.52,64,96,64,96l39.89,1
	C103.89,97,112,40.68,64,25.21z"/>
<circle style="fill:#5D4037;" cx="30.52" cy="106.02" r="3.61"/>
<circle style="fill:#5D4037;" cx="43.2" cy="107.8" r="3.2"/>
<circle style="fill:#5D4037;" cx="56.3" cy="108.89" r="3.2"/>
<g style="opacity:0.2;">
	<path style="fill:#424242;" d="M20.32,97.02c5.84,1.74,17.03,4.59,37.18,6.15c22.74,1.77,43.59,2.85,51.49,2.93v3.99
		c-3.84,1.15-13.38,3.27-42.91,3.27c-31.91,0-37.76-1.03-39.97-1.55L20.32,97.02 M17.04,92.91c-0.71,0-1.25,0.76-0.96,1.5
		l7.61,19.43c0.13,0.34,0.41,0.59,0.76,0.66c2.2,0.45,4.24,1.87,41.64,1.87c34.19,0,42.09-2.84,45.19-3.84
		c0.43-0.14,0.73-0.56,0.73-1.04v-7.3c0-0.6-0.47-1.09-1.04-1.09c-0.01,0-0.02,0-0.03,0c-0.31,0.01-0.69,0.01-1.13,0.01
		c-6.57,0-27.15-0.98-52.06-2.92c-25.85-2.01-36.66-6.12-40.41-7.23C17.23,92.92,17.13,92.91,17.04,92.91L17.04,92.91z"/>
</g>
<g style="opacity:0.2;">
	<path style="fill:#424242;" d="M68.11,29.92c15.93,6.7,26.31,19.3,30.88,37.53c2.84,11.31,2.54,21.76,2.19,26.48L67.94,93.1
		c1.4-5.57,3.6-16.84,3.37-32.08C71.11,47.42,69.35,36.21,68.11,29.92 M64,25.21c0,0,4,15.23,4.31,35.86C68.64,82.52,64,96,64,96
		l39.89,1C103.89,97,112,40.68,64,25.21L64,25.21z"/>
</g>
</svg>
